img/icons/icon2.svg

<svg xmlns="http://www.w3.org/2000/svg" viewBox="2641 1667 61.565 64"><defs><style>.cls-1{fill:#2a3052}</style></defs><g id="noun_1172380_cc" transform="translate(2635.4 1662.5)"><path id="Path_2605" data-name="Path 2605" class="cls-1" d="M20.887 79.035H13.1a2.316 2.316 0 0 1-2.3-2.3V53.3a2.316 2.316 0 0 1 2.3-2.3h7.722a2.316 2.316 0 0 1 2.3 2.3v23.439a2.3 2.3 0 0 1-2.235 2.296z" transform="translate(-1.583 -14.152)"/><path id="Path_2606" data-name="Path 2606" class="cls-1" d="M81.217 72.065H73.5a2.316 2.316 0 0 1-2.3-2.3V30.4a2.316 2.316 0 0 1 2.3-2.3h7.722a2.316 2.316 0 0 1 2.3 2.3v39.37a2.316 2.316 0 0 1-2.305 2.295z" transform="translate(-19.965 -7.183)"/><path id="Path_2607" data-name="Path 2607" class="cls-1" d="M40.987 74.987H33.2a2.316 2.316 0 0 1-2.3-2.3V40a2.316 2.316 0 0 1 2.3-2.3h7.722a2.316 2.316 0 0 1 2.3 2.3v32.7a2.257 2.257 0 0 1-2.235 2.287z" transform="translate(-7.7 -10.104)"/><path id="Path_2608" data-name="Path 2608" class="cls-1" d="M61.117 76.478H53.4a2.316 2.316 0 0 1-2.3-2.3V44.9a2.316 2.316 0 0 1 2.3-2.3h7.722a2.316 2.316 0 0 1 2.3 2.3v29.283a2.316 2.316 0 0 1-2.305 2.295z" transform="translate(-13.848 -11.596)"/><path id="Path_2609" data-name="Path 2609" class="cls-1" d="M66.122 95.587H6.643a1.043 1.043 0 0 1 0-2.087h59.479a1.07 1.07 0 0 1 1.043 1.043 1.024 1.024 0 0 1-1.043 1.044z" transform="translate(0 -27.087)"/><path id="Path_2610" data-name="Path 2610" class="cls-1" d="M59.648 4.5a4.735 4.735 0 0 0-4.73 4.73 4.99 4.99 0 0 0 .417 2.017l-6.748 4.87a4.61 4.61 0 0 0-2.987-1.043 4.749 4.749 0 0 0-3.965 2.087l-5.287-1.878v-.07a4.73 4.73 0 0 0-9.461 0 3.744 3.744 0 0 0 .278 1.53l-6.748 5.148a4.731 4.731 0 1 0 1.948 3.826 5.926 5.926 0 0 0-.278-1.6l6.743-5.147a4.424 4.424 0 0 0 2.852.974 4.939 4.939 0 0 0 3.9-2.017l5.353 1.873a4.731 4.731 0 0 0 9.461-.07 4.05 4.05 0 0 0-.209-1.322l7.026-5.148a4.723 4.723 0 1 0 2.435-8.76zM17.63 27.735a1.948 1.948 0 1 1 0-3.9h.209a1.96 1.96 0 0 1 1.739 1.948v.278a1.951 1.951 0 0 1-1.948 1.674zm15.93-12.452a2.021 2.021 0 0 1-.974 1.67 2.264 2.264 0 0 1-.974.278.521.521 0 0 1-.348-.07 1.935 1.935 0 0 1-1.6-1.878.882.882 0 0 1 .07-.417 1.929 1.929 0 0 1 1.878-1.53 1.873 1.873 0 0 1 1.67.974 1.36 1.36 0 0 1 .279.973zm12.04 6.469a2.053 2.053 0 0 1-1.53-.765 1.755 1.755 0 0 1-.417-1.183 1.945 1.945 0 0 1 1.947-1.947 1.532 1.532 0 0 1 .557.07 1.941 1.941 0 0 1 1.456 1.873 2.031 2.031 0 0 1-.139.626 2.064 2.064 0 0 1-1.874 1.326zm14.674-10.713a1.872 1.872 0 0 1-2.574-1.53V9.23a1.948 1.948 0 1 1 3.9 0 1.945 1.945 0 0 1-1.326 1.809z" transform="translate(-2.222)"/></g></svg>

<svg xmlns="http://www.w3.org/2000/svg" viewBox="2641 1667 61.565 64">
  <defs>
    <style>
      .cls-1 {
        fill: #2a3052;
      }
    </style>
  </defs>
  <g id="noun_1172380_cc" transform="translate(2635.4 1662.5)">
    <path id="Path_2605" data-name="Path 2605" class="cls-1" d="M20.887,79.035H13.1a2.316,2.316,0,0,1-2.3-2.3V53.3A2.316,2.316,0,0,1,13.1,51h7.722a2.316,2.316,0,0,1,2.3,2.3V76.739A2.3,2.3,0,0,1,20.887,79.035Z" transform="translate(-1.583 -14.152)"/>
    <path id="Path_2606" data-name="Path 2606" class="cls-1" d="M81.217,72.065H73.5a2.316,2.316,0,0,1-2.3-2.3V30.4a2.316,2.316,0,0,1,2.3-2.3h7.722a2.316,2.316,0,0,1,2.3,2.3V69.77A2.316,2.316,0,0,1,81.217,72.065Z" transform="translate(-19.965 -7.183)"/>
    <path id="Path_2607" data-name="Path 2607" class="cls-1" d="M40.987,74.987H33.2a2.316,2.316,0,0,1-2.3-2.3V40a2.316,2.316,0,0,1,2.3-2.3h7.722a2.316,2.316,0,0,1,2.3,2.3v32.7A2.257,2.257,0,0,1,40.987,74.987Z" transform="translate(-7.7 -10.104)"/>
    <path id="Path_2608" data-name="Path 2608" class="cls-1" d="M61.117,76.478H53.4a2.316,2.316,0,0,1-2.3-2.3V44.9a2.316,2.316,0,0,1,2.3-2.3h7.722a2.316,2.316,0,0,1,2.3,2.3V74.183A2.316,2.316,0,0,1,61.117,76.478Z" transform="translate(-13.848 -11.596)"/>
    <path id="Path_2609" data-name="Path 2609" class="cls-1" d="M66.122,95.587H6.643a1.043,1.043,0,0,1,0-2.087H66.122a1.07,1.07,0,0,1,1.043,1.043A1.024,1.024,0,0,1,66.122,95.587Z" transform="translate(0 -27.087)"/>
    <path id="Path_2610" data-name="Path 2610" class="cls-1" d="M59.648,4.5a4.735,4.735,0,0,0-4.73,4.73,4.99,4.99,0,0,0,.417,2.017l-6.748,4.87A4.61,4.61,0,0,0,45.6,15.074a4.749,4.749,0,0,0-3.965,2.087l-5.287-1.878v-.07a4.73,4.73,0,0,0-9.461,0,3.744,3.744,0,0,0,.278,1.53l-6.748,5.148a4.731,4.731,0,1,0,1.948,3.826,5.926,5.926,0,0,0-.278-1.6L28.83,18.97a4.424,4.424,0,0,0,2.852.974,4.939,4.939,0,0,0,3.9-2.017L40.935,19.8a4.731,4.731,0,0,0,9.461-.07,4.05,4.05,0,0,0-.209-1.322l7.026-5.148A4.723,4.723,0,1,0,59.648,4.5ZM17.63,27.735a1.948,1.948,0,1,1,0-3.9h.209a1.96,1.96,0,0,1,1.739,1.948v.278A1.951,1.951,0,0,1,17.63,27.735Zm15.93-12.452a2.021,2.021,0,0,1-.974,1.67,2.264,2.264,0,0,1-.974.278.521.521,0,0,1-.348-.07,1.935,1.935,0,0,1-1.6-1.878.882.882,0,0,1,.07-.417,1.929,1.929,0,0,1,1.878-1.53,1.873,1.873,0,0,1,1.67.974A1.36,1.36,0,0,1,33.561,15.283ZM45.6,21.752a2.053,2.053,0,0,1-1.53-.765,1.755,1.755,0,0,1-.417-1.183A1.945,1.945,0,0,1,45.6,17.857a1.532,1.532,0,0,1,.557.07A1.941,1.941,0,0,1,47.613,19.8a2.031,2.031,0,0,1-.139.626A2.064,2.064,0,0,1,45.6,21.752ZM60.274,11.039A1.872,1.872,0,0,1,57.7,9.509V9.23a1.948,1.948,0,1,1,3.9,0A1.945,1.945,0,0,1,60.274,11.039Z" transform="translate(-2.222)"/>
  </g>
</svg>
